!!!!SEGMENT: pl-kk--kk-i-7--111_anonim--cur-mundus-militat.krn
!!!cenid: 16xx:950
!!!COM: Anonim
!!!COM-rismid: pe30004985
!!!CDT:
!!!CNT:
!!!OTL: Cur mundus militat
!!!PDT:
!!!AGN: Sacred
!!!SMS-siglum: PL-Kk
!!!SMS-shelfmark: Kk.I.7
!!!SMS-shelfwork: 111 W
!!!SMS-variant:
!!!SMS-altvar:
!!!NIFC-rismid: 300258188
!!!URL-scan: http://repozytorium.nifc.pl/skany/pl-kk-nut--i-7
!!!ONB-nifc: UWAGA: C (skan 0082, s.57 ), A (0160, s.57), T (0247, s.57), B (0334, s.57). Następny utwór: Kyrie eleison
**kern	**text	**text	**text	**text	**text	**kern	**text	**text	**text	**text	**text	**kern	**text	**text	**text	**text	**text	**kern	**text	**text	**text	**text	**text
*part4	*part4	*part4	*part4	*part4	*part4	*part3	*part3	*part3	*part3	*part3	*part3	*part2	*part2	*part2	*part2	*part2	*part2	*part1	*part1	*part1	*part1	*part1	*part1
*staff4	*staff4	*staff4	*staff4	*staff4	*staff4	*staff3	*staff3	*staff3	*staff3	*staff3	*staff3	*staff2	*staff2	*staff2	*staff2	*staff2	*staff2	*staff1	*staff1	*staff1	*staff1	*staff1	*staff1
*	*verse 1	*verse 2	*verse 3	*verse 4	*verse 5	*	*verse 1	*verse 2	*verse 3	*verse 4	*verse 5	*	*verse 1	*verse 2	*verse 3	*verse 4	*verse 5	*	*verse 1	*verse 2	*verse 3	*verse 4	*verse 5
*Ibass	*	*	*	*	*	*Itenor	*	*	*	*	*	*Ialto	*	*	*	*	*	*Ivox	*	*	*	*	*
*I"BASSVS.	*	*	*	*	*	*I"TENOR.	*	*	*	*	*	*I"ALTVS.	*	*	*	*	*	*I"CANTVS.	*	*	*	*	*
*I'B	*	*	*	*	*	*I'T	*	*	*	*	*	*I'A	*	*	*	*	*	*I'S	*	*	*	*	*
*clefF4	*	*	*	*	*	*clefC4	*	*	*	*	*	*clefC3	*	*	*	*	*	*clefC1	*	*	*	*	*
*k[]	*	*	*	*	*	*k[]	*	*	*	*	*	*k[]	*	*	*	*	*	*k[]	*	*	*	*	*
*a:	*	*	*	*	*	*a:	*	*	*	*	*	*a:	*	*	*	*	*	*a:	*	*	*	*	*
*M3/2	*	*	*	*	*	*M3/2	*	*	*	*	*	*M3/2	*	*	*	*	*	*M3/2	*	*	*	*	*
*>[A,B,B]	*	*	*	*	*	*>[A,B,B]	*	*	*	*	*	*>[A,B,B]	*	*	*	*	*	*>[A,B,B]	*	*	*	*	*
=1	=1	=1	=1	=1	=1	=1	=1	=1	=1	=1	=1	=1	=1	=1	=1	=1	=1	=1	=1	=1	=1	=1	=1
*>A	*	*	*	*	*	*>A	*	*	*	*	*	*>A	*	*	*	*	*	*>A	*	*	*	*	*
*2\right	*	*	*	*	*	*	*	*	*	*	*	*2\right	*	*	*	*	*	*2\right	*	*	*	*	*
!LO:TX:a:i:t=De Vanitate mundi. B. Jacoponi Socij S. Franciſci.	!	!	!	!	!	!LO:TX:a:i:t=De Vanitate mundi B. Jacoponi Socij S. Francisci.	!	!	!	!	!	!LO:TX:a:i:t=De Vanitate mundi B. Jacoponi Socij S. Francisci.	!	!	!	!	!	!LO:TX:a:i:t=De Vanitate mundi. B. Jacoponi Socij S. Franciſci.	!	!	!	!	!
2A\	Cur	Plus	Dic	Quam	O!	2A/	Cur	Plus	Dic	Quam	O!	2e\	Cur	Plus	Dic	Quam	O!	2cc\	Cur	Plus	Dic	Quam	O
2E\	mun-	cre-	u-	bre-	es-	2G#X/	mun-	cre-	u-	bre-	es-	2e\	mun-	cre-	u-	bre-	es-	2bn\	mun-	cre-	u-	bre-	es-
2AA/	-dus	-de	-bi	-ve	-ca	2A/	-dus	-de	-bi	-ve	-ca	2e\	-dus	-de	-bi	-ve	-ca	2cc\	-dus	-de	-bi	-ve	-ca
=2	=2	=2	=2	=2	=2	=2	=2	=2	=2	=2	=2	=2	=2	=2	=2	=2	=2	=2	=2	=2	=2	=2	=2
2.Bn\	mi-	li-	Sa-	Fe-	Ver-	2.Gn/	mi-	li-	Sa-	Fe-	Ver-	2.d\	mi-	li-	Sa-	Fe-	Ver-	2.b\	mi-	li-	Sa-	Fe-	Ver-
4B\	-li-	-te-	-lo-	-stum	-mi-	4G/	-li-	-te-	-lo-	-stum	-mi-	4d\	-li-	-te-	-lo-	-stum	-mi-	4b\	-li-	-te-	-lo-	-stum	-mi-
2B\	-tat	-ris	-mon	est	-um!	2G/	-tat	-ris	-mon	eſt	-um!	2d\	-tat	-ris	-mon	est	-um!	2b\	-tat	-ris	-mon,	est	-um!
=3	=3	=3	=3	=3	=3	=3	=3	=3	=3	=3	=3	=3	=3	=3	=3	=3	=3	=3	=3	=3	=3	=3	=3
(4c\	sub	scri-	o-	haec	o	2G/	sub	scri-	o-	haec	o	2e\	sub	scri-	o-	haec	o	4ee\	sub	scri-	o-	haec	o
4B\)	.	.	.	.	.	.	.	.	.	.	.	.	.	.	.	.	.	4dd\	.	.	.	.	.
*	*	*	*	*	*	*2\right	*	*	*	*	*	*	*	*	*	*	*	*	*	*	*	*	*
2A\	va-	-ptis	-lim	mun-	maſ-	2A\	va-	-ptis	-lim	mun-	maſ-	2f#X\	va-	-ptis	-lim	mun-	maſ-	2cc\	Va-	-ptis	-lim	mun-	maſ-
2G\	-na	in	tam	-di	-sa	4B\	-na	in	tam	-di	-sa	2g\	-na	in	tam	-di	-sa	2b\	-na	in	tam	-di	-sa
.	.	.	.	.	.	4c\	.	.	.	.	.	.	.	.	.	.	.	.	.	.	.	.	.
=4	=4	=4	=4	=4	=4	=4	=4	=4	=4	=4	=4	=4	=4	=4	=4	=4	=4	=4	=4	=4	=4	=4	=4
(4D\	glo-	gla-	no-	glo-	pul-	[<1.d	Glo-	gla-	no-	glo-	pul-	4f#X\	glo-	gla-	no-	Glo-	pul-	1.a	glo-	gla-	no-	Glo-	pul-
4C\	.	.	.	.	.	.	.	.	.	.	.	4e\	.	.	.	.	.	.	.	.	.	.	.
4D\	.	.	.	.	.	.	.	.	.	.	.	4f#\	.	.	.	.	.	.	.	.	.	.	.
4E\	.	.	.	.	.	.	.	.	.	.	.	4g\	.	.	.	.	.	.	.	.	.	.	.
4F#X\	.	.	.	.	.	.	.	.	.	.	.	4a\	.	.	.	.	.	.	.	.	.	.	.
4D\)	.	.	.	.	.	.	.	.	.	.	.	4f#\	.	.	.	.	.	.	.	.	.	.	.
=5	=5	=5	=5	=5	=5	=5	=5	=5	=5	=5	=5	=5	=5	=5	=5	=5	=5	=5	=5	=5	=5	=5	=5
(4G\	.	.	.	.	.	1.d]	.	.	.	.	.	1.g	.	.	.	.	.	4b\	.	.	.	.	.
4F#X\	.	.	.	.	.	.	.	.	.	.	.	.	.	.	.	.	.	4a\	.	.	.	.	.
4G\	.	.	.	.	.	.	.	.	.	.	.	.	.	.	.	.	.	4b\	.	.	.	.	.
4A\	.	.	.	.	.	.	.	.	.	.	.	.	.	.	.	.	.	4cc\	.	.	.	.	.
4B\	.	.	.	.	.	.	.	.	.	.	.	.	.	.	.	.	.	4dd\	.	.	.	.	.
4c\)	.	.	.	.	.	.	.	.	.	.	.	.	.	.	.	.	.	4a\	.	.	.	.	.
=6	=6	=6	=6	=6	=6	=6	=6	=6	=6	=6	=6	=6	=6	=6	=6	=6	=6	=6	=6	=6	=6	=6	=6
2.d\	.	.	.	.	.	2.d\	.	.	.	.	.	2.f#X\	.	.	.	.	.	2.a\	.	.	.	.	.
4D/	-ri-	-ci-	-bi-	-ri-	-ve-	4d\	-ri-	-ci-	-bi-	-ri-	-ve-	4f#\	-ri-	-ci-	-bi-	-ri-	-ve-	4a\	-ri-	-ci-	-bi-	-ri-	-ve-
2D,/	-a	-e	-lis	-a?	-ris?	2d\	-a?	-e,	-lis?	-a!	-ris!	2f#\	-a?	-e,	-lis?	-a?	-ris!	2a\	-a?	-e,	-lis?	-a?	-ris!
=7	=7	=7	=7	=7	=7	=7	=7	=7	=7	=7	=7	=7	=7	=7	=7	=7	=7	=7	=7	=7	=7	=7	=7
1.rA	.	.	.	.	.	1.re	.	.	.	.	.	2d\	Cu-	quàm	Vel	ut	o	2f#X/	Cu-	quàm	vel	ut	o
.	.	.	.	.	.	.	.	.	.	.	.	2e\	-jus	mun-	u-	um-	nox	2g\	-jus	mun-	u-	um-	nox!
.	.	.	.	.	.	.	.	.	.	.	.	2f#X\	pros-	-di	-bi	-bra	o	2a\	pros-	-di	-bi	-bra	o
=8	=8	=8	=8	=8	=8	=8	=8	=8	=8	=8	=8	=8	=8	=8	=8	=8	=8	=8	=8	=8	=8	=8	=8
2G\	Cu-	qùam	Vel	ut	o	2d\	Cu-	quàm	Vel	ut	o	2g\	-pe-	fra-	Sam-	ho-	Va-	2b\	-pe-	fra-	Sam-	ho-	Va-
2A\	-jus	mun-	u-	um-	nox!	2c\	-jus	mun-	u-	um-	nox!	(4fn\	.	.	.	.	.	2cc\	.	.	.	.	.
.	.	.	.	.	.	.	.	.	.	.	.	4g\	.	.	.	.	.	.	.	.	.	.	.
2B\	pros-	-di	-bi	-bra	o	4B\	pros-	-di	-bi	-bra	o	4f\	.	.	.	.	.	2dd\	.	.	.	.	.
!	!	!	!	!	!	!	!	!	!	!	!	!LO:SIC:v:t=custos e	!	!	!	!	!	!	!	!	!	!	!
.	.	.	.	.	.	4A\	.	.	.	.	.	4g\)	.	.	.	.	.	.	.	.	.	.	.
!	!	!	!	!	!	!	!	!	!	!	!	!LO:LB:g=original	!	!	!	!	!	!	!	!	!	!	!
=9	=9	=9	=9	=9	=9	=9	=9	=9	=9	=9	=9	=9	=9	=9	=9	=9	=9	=9	=9	=9	=9	=9	=9
2.c\	-pe-	fra-	Sam-	ho-	Va-	2G/	-pe-	fra-	Sam-	ho-	Va-	2.e\	.	.	.	.	.	2.ee\	.	.	.	.	.
.	.	.	.	.	.	(4A\	.	.	.	.	.	.	.	.	.	.	.	.	.	.	.	.	.
4B\	.	.	.	.	.	4B\	.	.	.	.	.	4e\	.	.	.	.	.	4dd\	.	.	.	.	.
4A\	.	.	.	.	.	4c\	.	.	.	.	.	4f#X\	.	.	.	.	.	4cc\	.	.	.	.	.
!LO:SIC:v:t=custos F#	!	!	!	!	!	!LO:SIC:v:t=custos d	!	!	!	!	!	!	!	!	!	!	!	!LO:SIC:v:t=custos a	!	!	!	!	!
4G\	.	.	.	.	.	4e\)	.	.	.	.	.	4g\	.	.	.	.	.	4b\	.	.	.	.	.
!LO:LB:g=original	!	!	!	!	!	!LO:LB:g=original	!	!	!	!	!	!	!	!	!	!	!	!LO:LB:g=original	!	!	!	!	!
=10	=10	=10	=10	=10	=10	=10	=10	=10	=10	=10	=10	=10	=10	=10	=10	=10	=10	=10	=10	=10	=10	=10	=10
2.F#X\	.	.	.	.	.	2.d\	.	.	.	.	.	2.d\	.	.	.	.	.	2.a\	.	.	.	.	.
4F#\	-ri-	-gi-	son	-mi-	-ni-	4c\	-ri-	-gi-	son	-mi-	-ni-	4d\	-ri-	-gi-	son	-mi-	-ni-	4a\	-ri-	-gi-	son	-mi-	-ni-
2G,\	-tas	-lis	est	-nis	-tas!	2B\	-tas	-lis	est	-nis	-tas!	2d\	-tas	-lis	est	-nis	-tas!	2b\	-tas	-lis	est	-nis	-tas!
=11	=11	=11	=11	=11	=11	=11	=11	=11	=11	=11	=11	=11	=11	=11	=11	=11	=11	=11	=11	=11	=11	=11	=11
2D\	est	Va-	Dux	sunt	cur	2A\	est	va-	Dux	sunt	cur	2f#X\	est	Va-	Dux	sunt	cur	2dd\	est	va-	Dux	sunt	cur
2G\	tran-	-nae	in-	e-	sic	2B\	tran-	-nae	in-	e-	sic	2g\	tran-	-nae	in-	e-	sic	2dd\	tran-	-nae	in-	e-	sic
!	!	!	!	!	!	!LO:TX:t=P:problem:♯ above	!	!	!	!	!	!	!	!	!	!	!	!	!	!	!	!	!
!	!	!	!	!	!	!LO:N:acc=#	!	!	!	!	!	!	!	!	!	!	!	!	!	!	!	!	!
2E\	-si-	Fal-	-vin-	-jus	ex-	(4Bn\	-si-	fal-	-vin-	-jus	ex-	2g\	-si-	fal-	-vin-	-jus	ex-	2dd\	-ſi-	fal-	-vin-	-jus	ex-
.	.	.	.	.	.	4c#X\)	.	.	.	.	.	.	.	.	.	.	.	.	.	.	.	.	.
=12	=12	=12	=12	=12	=12	=12	=12	=12	=12	=12	=12	=12	=12	=12	=12	=12	=12	=12	=12	=12	=12	=12	=12
(4B\	-to-	-la-	-ci-	gau-	-tol-	1d#X	-to-	-la-	-ci-	Gau-	-tol-	1f#X	-to-	-la-	-ci-	Gau-	-tol-	1.b	-to-	-la-	-ci-	Gau-	-tol-
4c\	.	.	.	.	.	.	.	.	.	.	.	.	.	.	.	.	.	.	.	.	.	.	.
4B\	.	.	.	.	.	.	.	.	.	.	.	.	.	.	.	.	.	.	.	.	.	.	.
4A\)	.	.	.	.	.	.	.	.	.	.	.	.	.	.	.	.	.	.	.	.	.	.	.
2G\	.	.	.	.	.	[<2e\	.	.	.	.	.	2g\	.	.	.	.	.	.	.	.	.	.	.
=13	=13	=13	=13	=13	=13	=13	=13	=13	=13	=13	=13	=13	=13	=13	=13	=13	=13	=13	=13	=13	=13	=13	=13
2A\	.	.	.	.	.	1e]	.	.	.	.	.	1f#X	.	.	.	.	.	2cc\	.	.	.	.	.
2B\	.	.	.	.	.	.	.	.	.	.	.	.	.	.	.	.	.	2.b\	.	.	.	.	.
2BB/	-ri-	-ci-	-bi-	-di-	-le-	2d#X\	-ri-	-ci-	-bi-	-di-	-le-	2f#\	-ri-	-ci-	-bi-	-di-	-le-	.	.	.	.	.	.
.	.	.	.	.	.	.	.	.	.	.	.	.	.	.	.	.	.	4b\	-ri-	-ci-	-bi-	-di-	-le-
=14	=14	=14	=14	=14	=14	=14	=14	=14	=14	=14	=14	=14	=14	=14	=14	=14	=14	=14	=14	=14	=14	=14	=14
1.E,	-a:	-ae:	-lis?	-a:	-ris?	1.e	-a;	-ae!	-lis?	-a;	-ris?	1.e	-a;	-ae!	-lis?	-a?	-ris?	1.b	-a:	-ae;	-lis?	-a?	-ris?
=15!|:	=15!|:	=15!|:	=15!|:	=15!|:	=15!|:	=15!|:	=15!|:	=15!|:	=15!|:	=15!|:	=15!|:	=15!|:	=15!|:	=15!|:	=15!|:	=15!|:	=15!|:	=15!|:	=15!|:	=15!|:	=15!|:	=15!|:	=15!|:
*>B	*	*	*	*	*	*>B	*	*	*	*	*	*>B	*	*	*	*	*	*>B	*	*	*	*	*
1.rA	.	.	.	.	.	2cn\	Tam	Fal-	Aût	quae	I-	1.rg	.	.	.	.	.	2ee\	Tam	Fal-	Aut	Quae	I-
.	.	.	.	.	.	(4B\	ci-	-lax	pul-	sem-	-gno-	.	.	.	.	.	.	(4dd\	ci-	-lax	pul-	sem-	-gno-
.	.	.	.	.	.	4d\)	.	.	.	.	.	.	.	.	.	.	.	4ffn\)	.	.	.	.	.
.	.	.	.	.	.	(4c\	-tò	in	-cher	-per	-ras	.	.	.	.	.	.	(4ee\	-tò	in	-cher	-per	-ras
.	.	.	.	.	.	4B\)	.	.	.	.	.	.	.	.	.	.	.	4dd\)	.	.	.	.	.
=16	=16	=16	=16	=16	=16	=16	=16	=16	=16	=16	=16	=16	=16	=16	=16	=16	=16	=16	=16	=16	=16	=16	=16
*	*	*	*	*	*	*	*	*	*	*	*ij	*	*	*	*	*	*	*	*	*	*	*ij	*
2A\	Tam	Fal-	Aut	quae	I-	2A\	tam	prae-	Ab-	quae	I-	2e\	Tam	Fal-	Aût	quae	i-	2ccn\	tam	prae-	Ab-	quae	I-
(4G\	ci-	-lax	pul-	sem-	-gno-	(4B\	ci-	.	.	sem-	-gno-	2g\	ci-	-lax	pul-	sem-	-gno-	(4b\	ci-	.	.	sem-	-gno-
4Bn\)	.	.	.	.	.	4G\)	.	.	.	.	.	.	.	.	.	.	.	4dd\)	.	.	.	.	.
(4A\	-tò	in	-cher	-per	-ras	(4A\	-tò	.	.	-per	-ras	(4f#X\	-tò	in	-cher	-per	-ras	(4cc\	-tò	.	.	-per	-ras
*	*	*	*	*	*	*	*	*	*	*	*Xij	*	*	*	*	*	*	*	*	*	*	*Xij	*
4G\)	.	.	.	.	.	4B\)	.	.	.	.	.	4g\)	.	.	.	.	.	4b\)	.	.	.	.	.
=17	=17	=17	=17	=17	=17	=17	=17	=17	=17	=17	=17	=17	=17	=17	=17	=17	=17	=17	=17	=17	=17	=17	=17
2.c\	la-	prae-	Ab-	sub-	pae-	2.G/	la-	.	.	sub-	pae-	2.e\	la-	prae-	Ab-	sub-	pae-	2.cc\	la-	.	.	sub-	pae-
4C/	-bi-	-mi-	-sa-	-tra-	-ni-	4G/	-bi-	-mi-	-sa-	-tra-	-ni-	4e\	-bi-	-mi-	-sa-	-tra-	-ni-	4cc\	-bi-	-mi-	-sa-	-tra-	-ni-
2C,/	-tur	-js	-lon	-hunt	-tùs	2G/	-tur	-js	-lon	-hunt	-tùs	2e\	-tur	-js	-lon	-hunt	-tùs	2cc\	-tur	-js	-lon	-hunt	-tùs
=18	=18	=18	=18	=18	=18	=18	=18	=18	=18	=18	=18	=18	=18	=18	=18	=18	=18	=18	=18	=18	=18	=18	=18
2BB/	e-	vir-	mul-	ae-	u-	2B\	e-	Vir-	mul-	ae-	u-	2g\	e-	Vir-	mul-	ae-	u-	2dd\	e-	Vir-	mul-	ae-	u-
2C/	-jus	-tu-	-tùm	-ter-	-trùm	2e\	-jus	-tu-	-tùm	-ter-	-trùm	2g\	-jus	-tu-	-tùm	-ter-	-trùm	2cc\	-jus	-tu-	-tum	-ter-	-trùm
!	!	!	!	!	!	!	!	!	!	!	!	!LO:SIC:v:t=custos f#	!	!	!	!	!	!	!	!	!	!	!
2GG/	po-	-tis	mi-	-na	cras	2d\	po-	-tis	mi-	-na	cras	2g\	po-	-tis	mi-	-na	cras	2b\	po-	-tis	mi-	-na	cras
!	!	!	!	!	!	!	!	!	!	!	!	!LO:LB:g=original	!	!	!	!	!	!	!	!	!	!	!
=19	=19	=19	=19	=19	=19	=19	=19	=19	=19	=19	=19	=19	=19	=19	=19	=19	=19	=19	=19	=19	=19	=19	=19
!	!	!	!	!	!	!LO:SIC:v:t=custos c	!	!	!	!	!	!	!	!	!	!	!	!	!	!	!	!	!
(4D/	-ten-	spe-	-ra-	prae-	vi-	1.d	-ten-	spe-	-ra-	prae-	vi-	4f#X\	-ten-	spe-	-ra-	prae-	vi-	2a\	-ten-	spe-	-ra-	prae-	vi-
4E/	.	.	.	.	.	.	.	.	.	.	.	4g\	.	.	.	.	.	.	.	.	.	.	.
4D/	.	.	.	.	.	.	.	.	.	.	.	4f#\	.	.	.	.	.	4b\	.	.	.	.	.
4C/)	.	.	.	.	.	.	.	.	.	.	.	4e\	.	.	.	.	.	4cc\	.	.	.	.	.
!	!	!	!	!	!	!	!	!	!	!	!	!	!	!	!	!	!	!LO:SIC:v:t=custos ee	!	!	!	!	!
4BB/	.	.	.	.	.	.	.	.	.	.	.	4d\	.	.	.	.	.	2dd\	.	.	.	.	.
!LO:SIC:v:t=custos C	!	!	!	!	!	!	!	!	!	!	!	!	!	!	!	!	!	!	!	!	!	!	!
4GG/	.	.	.	.	.	.	.	.	.	.	.	[<4g\	.	.	.	.	.	.	.	.	.	.	.
!LO:LB:g=original	!	!	!	!	!	!LO:LB:g=original	!	!	!	!	!	!	!	!	!	!	!	!LO:LB:g=original	!	!	!	!	!
=20	=20	=20	=20	=20	=20	=20	=20	=20	=20	=20	=20	=20	=20	=20	=20	=20	=20	=20	=20	=20	=20	=20	=20
2C/	.	.	.	.	.	4c\	.	.	.	.	.	1g]	.	.	.	.	.	2ee\	.	.	.	.	.
.	.	.	.	.	.	4B\	.	.	.	.	.	.	.	.	.	.	.	.	.	.	.	.	.
2D\	.	.	.	.	.	2.A/	.	.	.	.	.	.	.	.	.	.	.	2.dd\	.	.	.	.	.
2DD/	-ti-	-ci-	-bi-	-mi-	-xe-	.	.	.	.	.	.	2f#X\	-ti-	-ci-	-bi-	-mi-	-xe-	.	.	.	.	.	.
.	.	.	.	.	.	4A/	-ti-	-ci-	-bi-	-mi-	-xe-	.	.	.	.	.	.	4dd\	-ti-	-ci-	-bi-	-mi-	-xe-
=21	=21	=21	=21	=21	=21	=21	=21	=21	=21	=21	=21	=21	=21	=21	=21	=21	=21	=21	=21	=21	=21	=21	=21
1.GG,	-a,	-e,	-lis?	-a,	-ris?	1.B,	-a,	-e,	-lis?	-a,	-ris?	1.g	-a	-e,	-lis?	-a,	-ris?	1.dd	-a;	-e,	-lis?	-a,	-ris?
=22	=22	=22	=22	=22	=22	=22	=22	=22	=22	=22	=22	=22	=22	=22	=22	=22	=22	=22	=22	=22	=22	=22	=22
1.rA	.	.	.	.	.	4G#X/	quàm	qui	Vel	et	Fac	1.rg	.	.	.	.	.	(4b\	quam	qui	vel	et	Fac
.	.	.	.	.	.	4A/	.	.	.	.	.	.	.	.	.	.	.	4cc\)	.	.	.	.	.
.	.	.	.	.	.	(4B/	Va-	nun-	dul-	du-	bo-	.	.	.	.	.	.	(4dd\	Va-	nun-	dul-	du-	bo-
.	.	.	.	.	.	4A/)	.	.	.	.	.	.	.	.	.	.	.	4cc\)	.	.	.	.	.
.	.	.	.	.	.	(4B/	-sa	-quam	-cis	-cunt	-num	.	.	.	.	.	.	(4dd\	-sa	-quam	-cis	-cunt	-num
.	.	.	.	.	.	4A/)	.	.	.	.	.	.	.	.	.	.	.	4cc\)	.	.	.	.	.
=23	=23	=23	=23	=23	=23	=23	=23	=23	=23	=23	=23	=23	=23	=23	=23	=23	=23	=23	=23	=23	=23	=23	=23
*	*	*	*	*	*	*	*	*	*ij	*	*	*	*	*	*	*	*	*	*	*	*ij	*ij	*
4E\	qùam	qui	vel	et	Fac	1G#X	Va-	nun-	dul-	du-	bo-	2e\	quàm	qui	vel	et	Fac	1b	Va-	nun-	dul-	du-	bo-
4F#X\	.	.	.	.	.	.	.	.	.	.	.	.	.	.	.	.	.	.	.	.	.	.	.
(4G#X\	Va-	nun-	dul-	du-	bo-	.	.	.	.	.	.	2e\	Va-	nun-	dul-	du-	bo-	.	.	.	.	.	.
4F#\)	.	.	.	.	.	.	.	.	.	.	.	.	.	.	.	.	.	.	.	.	.	.	.
(4G#\	-sa	-quam	-cis	-cunt	-num	2G#/	-ſa	-quàm	-cis	-cunt	-num	2e\	-ſa	-quam	-cis	-cunt	-num	2b\	-sa	-quam	-cis	-cunt	-num
*	*	*	*	*	*	*	*	*	*Xij	*	*	*	*	*	*	*	*	*	*	*	*Xij	*Xij	*
4E\)	.	.	.	.	.	.	.	.	.	.	.	.	.	.	.	.	.	.	.	.	.	.	.
=24	=24	=24	=24	=24	=24	=24	=24	=24	=24	=24	=24	=24	=24	=24	=24	=24	=24	=24	=24	=24	=24	=24	=24
2.A\	Fi-	ha-	Jo-	ho-	om-	2.A\	Fi-	ha-	Jo-	ho-	om-	2.e\	Fi-	ha-	Jo-	ho-	om-	2.cc\	Fi-	ha-	Jo-	ho-	om-
4G\	-gu-	-bu-	-na-	-mi-	-ni-	4A\	-gu-	-bu-	-na-	-mi-	-ni-	4e\	-gu-	-bu-	-na-	-mi-	-ni-	4cc\	-gu-	-bu-	-na-	-mi-	-ni-
2Fn\	-li	-it	-thas	-nem	-bus	2A\	-li	-it	-thas	-nem	-bus	2fn\	-li	-it	-thas	-nem	-bus	2dd\	-li,	-it	-thas	-nem	-bus
=25	=25	=25	=25	=25	=25	=25	=25	=25	=25	=25	=25	=25	=25	=25	=25	=25	=25	=25	=25	=25	=25	=25	=25
2E\	quae	tem-	mul-	ad	quàm	4B\	quae	tem-	mul-	ad	quàm	2B/	quae	tem-	mul-	ad	quàm	2g#X/	quae	tem-	mul-	ad	quàm
.	.	.	.	.	.	4c\	.	.	.	.	.	.	.	.	.	.	.	.	.	.	.	.	.
2F;\	sunt	-pus	-tùm	dura	diù	2d;\	sunt	-pus	-tùm	dura	diù	2f;\	sunt	-pus	-tùm	dura	diu	2a;\	sunt	-pus	-tùm	dura	diu
!LO:TX:t=P:problem:kreska taktowa podwójna	!	!	!	!	!	!	!	!	!	!	!	!	!	!	!	!	!	!	!	!	!	!	!
2r	.	.	.	.	.	2rc	.	.	.	.	.	2re	.	.	.	.	.	2r	.	.	.	.	.
=26	=26	=26	=26	=26	=26	=26	=26	=26	=26	=26	=26	=26	=26	=26	=26	=26	=26	=26	=26	=26	=26	=26	=26
2D\	fra-	fi-	a-	de-	po-	2B\	fra-	fi-	a-	de-	po-	2f\	fra-	fi-	A-	de-	vi-	2a\	fra-	Fi-	a-	de-	vi-
2.E\	-gi-	-du-	-ma-	.	.	2.B\	-gi-	-du-	-ma-	.	.	2.e\	-gi-	-du-	-ma-	.	.	2.aT\	-gi-	-du-	-ma-	.	.
4EE/	-li-	-ci-	-bi-	-vi-	-te-	4B\	-li-	-ci-	-bi-	-vi-	-te-	4e\	-li-	-ci-	-bi-	-vi-	-xe-	4g#X\	-li-	-ci-	-bi-	-vi-	-xe-
=27	=27	=27	=27	=27	=27	=27	=27	=27	=27	=27	=27	=27	=27	=27	=27	=27	=27	=27	=27	=27	=27	=27	=27
!	!	!	!	!	!	!LO:SIC:v:t=custos cn	!	!	!	!	!	!	!	!	!	!	!	!	!	!	!	!	!
1.AA	-a.	-ae.	-lis.	-a.	-ris.	1.c#X	-a.	-ae.	-lis?	-a.	-ris.	1.e	-a.	-ae.	-lis.	-a.	-ris.	1.a	-a.	-ae.	-lis.	-a.	-ris.
=:|!	=:|!	=:|!	=:|!	=:|!	=:|!	=:|!	=:|!	=:|!	=:|!	=:|!	=:|!	=:|!	=:|!	=:|!	=:|!	=:|!	=:|!	=:|!	=:|!	=:|!	=:|!	=:|!	=:|!
*-	*-	*-	*-	*-	*-	*-	*-	*-	*-	*-	*-	*-	*-	*-	*-	*-	*-	*-	*-	*-	*-	*-	*-
!!!system-decoration: [s1,s2,s3,s4]
!!!RDF**kern: < = below
!!!ENC: Marta Lawrence
!!!END: 2021-03-20
!!!ENC: Andrzej Kubiczek
!!!END: 2021-03-06
